!!!OTL: Sachsenlied.
!!!OTL-incipit:ERTOENE BEGEISTERNDES VATERLANDSLIED
!!!COM: Ch. J. Zahn
!!!ARE: Europa, Mitteleuropa, Deutschland
!!!SCT: F0423
!!!TXL: @@DE
!!!YEM: Copyright 1995, estate of Helmut Schaffrath.
**kern	**text
*ICvox	*
*M4/4	*
*met(c)	*
*k[b-e-]	*
*B-:	*
!LO:TX:a:t=(Wiese. Wohlauf. Kameraden, auf's Pferd, auf's Pferd.)	!
{4f	Er-
=1	=1
4b-/	-tö-
8.b-/	-ne,
16b-/	be-
8b-/L	-gei-
8fJ	.
8d	-ſterndes
8B-	.
=2	=2
4f	Va-
8.f	-ter-
16f	-landslied,
4f}	.
{8fL	er-
8b-J	.
=3	=3
4dd/	-tö-
8.cc/	-ne
16dd/	mit
4ee-/	Luſt
8dd/	und
8dd/	Ent-
=4	=4
4dd/	-ʒü-
4cc/	-cken!
4r}	.
{4f	Die
=5	=5
4b-/	Bruſt,
8.b-/	die
16b-/	voll
8b-L	Lie-
8fJ	.
8d	-be
8B-	ʒum
=6	=6
4f	Va-
8.f	-ter-
16f	-land
4f}	glüht,
{8fL	ſieht
8b-J	ʒum
=7	=7
4dd/	Him-
8.cc/	-mel
16dd/	mit
4ee-/	dan-
8dd/	-ken-
8dd/	-den
=8	=8
4dd/	Bli-
4cc/	-cken;
4r}	.
{8fL	es
8aJ	.
=9	=9
4cc/	brauſten
8cc/	.
8cc/	die
4cc/	Wo-
8b-/	-gen
8cc/	in
=10	=10
4dd/	Sturm
4cc/	und
4b-/}	Nacht,
{4ff/	ein
=11	=11
4ff/	ſchü-
8.f	-tʒen-
16f	-der
4f	En-
8g	-gel
8a	hat
=12	=12
8b-/L	Sach-
8ddJ	.
(8cc/	-ſen
8a)	be-
4b-/}	-wacht.
==	==
!!!AGN: Vaterlands -, Heimat - Lied, nationalistisch, Sachsen - Lied
!!!ONB: ESAC (Essen Associative Code) Database: FINK
!!!AMT: simple quadruple
!!!AIN: vox
!!!EED: Helmut Schaffrath
!!!EEV: 1.0
!!Text: S. A. Mahlmann
!!!GTL: Vaterlands- und Heimathslieder.
!!!source: Musikalischer Hausschatz der Deutschen. Eine Sammlung von über 1000 Liedern und Gesängen mit Singstimmen und Klavierbegleitung. Leipzig, Litterarisches Verlags-Haus.
!!!page: 261
!!!ENC: Anna Maria Matuszewska
!!!EEV: 2025/03/14
*-	*-
